X:1
T:2 Braul
S:Bela Bartok
O:Rumania
Z:
Q:1/4=134
M:2/4
L:1/8
K:D
.E.F.G.A | .B.A.E.A | .B2 .B>(c | B4) | .A.B.c.A | .d2 ((5d/2c/2B/2A/2G/2 | .A2) .A>(B | A4 | .A.B.c.A | .d2 d/2c/2B/2A/2 | .G).F.G.A |
.G.F .E z | .E.F.G.B | .A.G.F.G | E2 E>(B, | E4 |
.e.f.g.a | .b.a.e.a | .b2 .b>(c' | b4 | .a.b.c'.a | (d'2 c'/2b/2a/2g/2 |
.a2) .a>(b | a4) | .a.b.c'.a | d'2 (d'/2c'/2b/2a/2 | .g.f.g.a | .g.f .e2 |
.e.f.g.b | .a.g.f.g | .e2 .e>(B | e4) |]

